src/images/projects/impact-depth/thumbnail.svg

<svg xmlns="http://www.w3.org/2000/svg" width="1140" height="1197" overflow="hidden">
  <defs>
    <clipPath id="clip0">
      <path d="M1264 364h1140v1197H1264z"/>
    </clipPath>
  </defs>
  <g clip-path="url(#clip0)" transform="translate(-1264 -364)" stroke-miterlimit="8">
    <path fill="none" stroke="#0D0D0D" stroke-width="27.5" d="m1873 1044 263.91 431.02"/>
    <path fill="none" stroke="#000" stroke-width="27.5" d="m1802.92 997-204.924 431.024"/>
    <path fill="none" stroke="#0D0D0D" stroke-width="27.5" d="m1928 602 242.17 262.956"/>
    <path fill="none" stroke="#000" stroke-width="27.5" d="M1833 642v182.263M1738.17 602 1496 868.083"/>
    <path fill="none" stroke="#85B44D" stroke-width="20.625" d="M1833.5 642.5v182.263"/>
    <path fill="none" stroke="#938EE0" stroke-width="20.625" d="M1738.67 602.5 1496.5 868.583"/>
    <path fill="none" stroke="#00BD7E" stroke-width="20.625" d="m1928.5 602.5 242.17 262.956"/>
    <path fill="none" stroke="#4AC4E2" stroke-width="20.625" d="m1839.5 989.5 263.91 431.02"/>
    <path fill="none" stroke="#E54400" stroke-width="20.625" d="m1808.42 989.5-204.924 431.024"/>
    <path fill="#FFCF0A" fill-rule="evenodd" stroke="#0D0D0D" stroke-width="4.583" d="M1698.5 504.5c0-76.215 60.44-138 135-138s135 61.785 135 138-60.44 138-135 138-135-61.785-135-138Z"/>
    <path fill="#938EE0" fill-rule="evenodd" stroke="#0D0D0D" stroke-width="4.583" d="M1266.5 965.5c0-76.215 60.22-138 134.5-138s134.5 61.785 134.5 138c0 76.22-60.22 138-134.5 138s-134.5-61.78-134.5-138Z"/>
    <path fill="#85B44D" fill-rule="evenodd" stroke="#0D0D0D" stroke-width="4.583" d="M1698.5 962.5c0-76.215 60.44-138 135-138s135 61.785 135 138c0 76.22-60.44 138-135 138s-135-61.78-135-138Z"/>
    <path fill="#00BD7E" fill-rule="evenodd" stroke="#0D0D0D" stroke-width="4.583" d="M2131.5 962.5c0-76.215 60.44-138 135-138s135 61.785 135 138c0 76.22-60.44 138-135 138s-135-61.78-135-138Z"/>
    <path fill="#E54400" fill-rule="evenodd" stroke="#0D0D0D" stroke-width="4.583" d="M1429.5 1420.5c0-76.22 60.22-138 134.5-138s134.5 61.78 134.5 138-60.22 138-134.5 138-134.5-61.78-134.5-138Z"/>
    <path fill="#4AC4E2" fill-rule="evenodd" stroke="#0D0D0D" stroke-width="4.583" d="M1969.5 1420.5c0-76.22 60.22-138 134.5-138s134.5 61.78 134.5 138-60.22 138-134.5 138-134.5-61.78-134.5-138Z"/>
  </g>
</svg>

<svg xmlns="http://www.w3.org/2000/svg" xmlns:xlink="http://www.w3.org/1999/xlink" width="1140" height="1197" overflow="hidden"><defs><clipPath id="clip0"><rect width="1140" height="1197" x="1264" y="364"/></clipPath></defs><g clip-path="url(#clip0)" transform="translate(-1264 -364)"><path fill="none" fill-rule="evenodd" stroke="#0D0D0D" stroke-miterlimit="8" stroke-width="27.5" d="M1873 1044 2136.91 1475.02"/><path fill="none" fill-rule="evenodd" stroke="#000" stroke-miterlimit="8" stroke-width="27.5" d="M0 0 204.924 431.024" transform="matrix(-1 0 0 1 1802.92 997)"/><path fill="none" fill-rule="evenodd" stroke="#0D0D0D" stroke-miterlimit="8" stroke-width="27.5" d="M1928 602 2170.17 864.956"/><path fill="none" fill-rule="evenodd" stroke="#000" stroke-miterlimit="8" stroke-width="27.5" d="M1833 642 1833 824.263"/><path fill="none" fill-rule="evenodd" stroke="#000" stroke-miterlimit="8" stroke-width="27.5" d="M0 0 242.17 266.083" transform="matrix(-1 0 0 1 1738.17 602)"/><path fill="none" fill-rule="evenodd" stroke="#85B44D" stroke-miterlimit="8" stroke-width="20.625" d="M1833.5 642.5 1833.5 824.763"/><path fill="none" fill-rule="evenodd" stroke="#938EE0" stroke-miterlimit="8" stroke-width="20.625" d="M0 0 242.17 266.083" transform="matrix(-1 0 0 1 1738.67 602.5)"/><path fill="none" fill-rule="evenodd" stroke="#00BD7E" stroke-miterlimit="8" stroke-width="20.625" d="M1928.5 602.5 2170.67 865.456"/><path fill="none" fill-rule="evenodd" stroke="#4AC4E2" stroke-miterlimit="8" stroke-width="20.625" d="M1839.5 989.5 2103.41 1420.52"/><path fill="none" fill-rule="evenodd" stroke="#E54400" stroke-miterlimit="8" stroke-width="20.625" d="M0 0 204.924 431.024" transform="matrix(-1 0 0 1 1808.42 989.5)"/><path fill="#FFCF0A" fill-rule="evenodd" stroke="#0D0D0D" stroke-miterlimit="8" stroke-width="4.583" d="M1698.5 504.5C1698.5 428.285 1758.94 366.5 1833.5 366.5 1908.06 366.5 1968.5 428.285 1968.5 504.5 1968.5 580.715 1908.06 642.5 1833.5 642.5 1758.94 642.5 1698.5 580.715 1698.5 504.5Z"/><path fill="#938EE0" fill-rule="evenodd" stroke="#0D0D0D" stroke-miterlimit="8" stroke-width="4.583" d="M1266.5 965.5C1266.5 889.285 1326.72 827.5 1401 827.5 1475.28 827.5 1535.5 889.285 1535.5 965.5 1535.5 1041.72 1475.28 1103.5 1401 1103.5 1326.72 1103.5 1266.5 1041.72 1266.5 965.5Z"/><path fill="#85B44D" fill-rule="evenodd" stroke="#0D0D0D" stroke-miterlimit="8" stroke-width="4.583" d="M1698.5 962.5C1698.5 886.285 1758.94 824.5 1833.5 824.5 1908.06 824.5 1968.5 886.285 1968.5 962.5 1968.5 1038.72 1908.06 1100.5 1833.5 1100.5 1758.94 1100.5 1698.5 1038.72 1698.5 962.5Z"/><path fill="#00BD7E" fill-rule="evenodd" stroke="#0D0D0D" stroke-miterlimit="8" stroke-width="4.583" d="M2131.5 962.5C2131.5 886.285 2191.94 824.5 2266.5 824.5 2341.06 824.5 2401.5 886.285 2401.5 962.5 2401.5 1038.72 2341.06 1100.5 2266.5 1100.5 2191.94 1100.5 2131.5 1038.72 2131.5 962.5Z"/><path fill="#E54400" fill-rule="evenodd" stroke="#0D0D0D" stroke-miterlimit="8" stroke-width="4.583" d="M1429.5 1420.5C1429.5 1344.28 1489.72 1282.5 1564 1282.5 1638.28 1282.5 1698.5 1344.28 1698.5 1420.5 1698.5 1496.72 1638.28 1558.5 1564 1558.5 1489.72 1558.5 1429.5 1496.72 1429.5 1420.5Z"/><path fill="#4AC4E2" fill-rule="evenodd" stroke="#0D0D0D" stroke-miterlimit="8" stroke-width="4.583" d="M1969.5 1420.5C1969.5 1344.28 2029.72 1282.5 2104 1282.5 2178.28 1282.5 2238.5 1344.28 2238.5 1420.5 2238.5 1496.72 2178.28 1558.5 2104 1558.5 2029.72 1558.5 1969.5 1496.72 1969.5 1420.5Z"/></g></svg>
